symbolic/32x32/apps/electrum-axe.svg

<svg xmlns="http://www.w3.org/2000/svg" width="32" height="32" version="1">
 <rect style="opacity:0.2" width="9.799" height="32.663" x="-4.19" y="-39.67" rx="2.45" ry="2.45" transform="rotate(135)"/>
 <rect style="fill:#cccccc" width="9.799" height="32.663" x="-4.9" y="-38.96" rx="2.45" ry="2.45" transform="rotate(135)"/>
 <rect style="opacity:0.2" width="9.799" height="32.663" x="18.43" y="-15.62" rx="2.45" ry="2.45" transform="rotate(45)"/>
 <rect style="fill:#e4e4e4" width="9.799" height="32.663" x="17.73" y="-16.33" rx="2.45" ry="2.45" transform="rotate(45)"/>
 <path style="fill:#4f4f4f" d="m 7.9158196,1.9999996 c -0.099334,0 -0.1979299,0.016662 -0.2966796,0.028711 L 15.999999,14.6 24.380858,2.0273433 c -0.09874,-0.01207 -0.19736,-0.027344 -0.296679,-0.027344 -0.626203,0 -1.252405,0.2393188 -1.732226,0.7191406 L 15.999999,9.071093 9.6480459,2.7191402 C 9.1682246,2.2393184 8.542013,1.9999996 7.9158196,1.9999996 Z"/>
 <path style="fill:#4f4f4f" d="M 15.999999,17.4 7.61914,29.972656 C 7.717875,29.984726 7.8165008,30 7.9158196,30 c 0.6262025,0 1.252405,-0.239319 1.7322263,-0.719141 l 6.3519531,-6.351953 6.351954,6.351953 C 22.831774,29.760681 23.457976,30 24.084179,30 c 0.09932,0 0.197944,-0.01527 0.296679,-0.02734 z"/>
 <path style="opacity:0.1;fill:#ffffff" d="M 7.9160156 2 C 7.2898221 2 6.6634155 2.2408813 6.1835938 2.7207031 L 2.7207031 6.1835938 C 2.1121785 6.7921183 1.8934159 7.6350885 2.0566406 8.4160156 C 2.1508375 7.9654687 2.3696187 7.5346782 2.7207031 7.1835938 L 6.1835938 3.7207031 C 6.6634156 3.2408813 7.2898221 3 7.9160156 3 C 8.5422091 3 9.1686157 3.2408813 9.6484375 3.7207031 L 16 10.072266 L 22.351562 3.7207031 C 23.311207 2.7610594 24.856763 2.7610594 25.816406 3.7207031 L 29.279297 7.1835938 C 29.630381 7.5346782 29.849163 7.9654687 29.943359 8.4160156 C 30.106584 7.6350885 29.887822 6.7921183 29.279297 6.1835938 L 25.816406 2.7207031 C 24.856763 1.7610594 23.311206 1.7610594 22.351562 2.7207031 L 16 9.0722656 L 9.6484375 2.7207031 C 9.1686157 2.2408813 8.5422091 2 7.9160156 2 z M 8.5722656 16.5 L 2.7207031 22.351562 C 2.1121785 22.960087 1.8934159 23.803057 2.0566406 24.583984 C 2.1508375 24.133437 2.3696187 23.702647 2.7207031 23.351562 L 9.0722656 17 L 8.5722656 16.5 z M 23.427734 16.5 L 22.927734 17 L 29.279297 23.351562 C 29.630381 23.702647 29.849163 24.133437 29.943359 24.583984 C 30.106584 23.803057 29.887822 22.960087 29.279297 22.351562 L 23.427734 16.5 z"/>
</svg>

<svg xmlns="http://www.w3.org/2000/svg" width="32" height="32" version="1"><rect style="opacity:.2" width="9.799" height="32.663" x="-4.19" y="-39.67" rx="2.45" ry="2.45" transform="rotate(135)"/><rect style="fill:#ccc" width="9.799" height="32.663" x="-4.9" y="-38.96" rx="2.45" ry="2.45" transform="rotate(135)"/><rect style="opacity:.2" width="9.799" height="32.663" x="18.43" y="-15.62" rx="2.45" ry="2.45" transform="rotate(45)"/><rect style="fill:#e4e4e4" width="9.799" height="32.663" x="17.73" y="-16.33" rx="2.45" ry="2.45" transform="rotate(45)"/><path style="fill:#4f4f4f" d="M7.916 2c-.1 0-.198.017-.297.029L16 14.6l8.38-12.573c-.098-.012-.197-.027-.296-.027-.626 0-1.252.24-1.732.72L16 9.07 9.648 2.72A2.441 2.441 0 0 0 7.916 2zM16 17.4 7.62 29.973c.098.012.197.027.296.027.626 0 1.252-.24 1.732-.72L16 22.93l6.352 6.352c.48.48 1.106.719 1.732.719.1 0 .198-.015.297-.027z"/><path style="opacity:.1;fill:#fff" d="M7.916 2c-.626 0-1.253.24-1.732.72L2.72 6.185a2.44 2.44 0 0 0-.664 2.232 2.44 2.44 0 0 1 .664-1.232L6.184 3.72a2.443 2.443 0 0 1 3.464 0L16 10.072l6.352-6.351c.96-.96 2.505-.96 3.464 0l3.463 3.463c.351.35.57.781.664 1.232a2.44 2.44 0 0 0-.664-2.232L25.816 2.72a2.445 2.445 0 0 0-3.464 0L16 9.072 9.648 2.721A2.443 2.443 0 0 0 7.916 2zm.656 14.5-5.851 5.852a2.44 2.44 0 0 0-.664 2.232 2.44 2.44 0 0 1 .664-1.232L9.072 17l-.5-.5zm14.856 0-.5.5 6.351 6.352c.351.35.57.781.664 1.232a2.44 2.44 0 0 0-.664-2.232L23.428 16.5z"/></svg>
